package/converter/svg/regular/train-subway.svg

<svg xmlns="http://www.w3.org/2000/svg" viewBox="0 0 448 512"><!-- Font Awesome Pro 6.0.0-alpha2 by @fontawesome - https://fontawesome.com License - https://fontawesome.com/license (Commercial License) --><path d="M352 0H96C42.98 0 0 42.98 0 96V352C0 394.846 28.256 430.705 67.008 443.055L39.031 471.031C29.656 480.406 29.656 495.594 39.031 504.969C43.719 509.656 49.859 512 56 512S68.281 509.656 72.969 504.969L129.938 448H318.062L375.031 504.969C379.719 509.656 385.859 512 392 512S404.281 509.656 408.969 504.969C418.344 495.594 418.344 480.406 408.969 471.031L380.992 443.055C419.744 430.705 448 394.846 448 352V96C448 42.98 405.02 0 352 0ZM48 96C48 69.533 69.533 48 96 48H199.998V208H48V96ZM400 352C400 378.467 378.467 400 352 400H96C69.533 400 48 378.467 48 352V256H400V352ZM400 208H247.998V48H352C378.467 48 400 69.533 400 96V208ZM128 352C145.674 352 160 337.672 160 320C160 302.326 145.674 288 128 288S96 302.326 96 320C96 337.672 110.326 352 128 352ZM320 352C337.674 352 352 337.672 352 320C352 302.326 337.674 288 320 288S288 302.326 288 320C288 337.672 302.326 352 320 352Z"/></svg>

<svg xmlns="http://www.w3.org/2000/svg" viewBox="0 0 448 512"><!--! Font Awesome Pro 6.6.0 by @fontawesome - https://fontawesome.com License - https://fontawesome.com/license (Commercial License) Copyright 2024 Fonticons, Inc. --><path d="M200 48l0 160L48 208 48 96c0-26.5 21.5-48 48-48l104 0zm48 0l104 0c26.5 0 48 21.5 48 48l0 112-152 0 0-160zM48 352l0-96 352 0 0 96c0 26.5-21.5 48-48 48L96 400c-26.5 0-48-21.5-48-48zM96 0C43 0 0 43 0 96L0 352c0 42.8 28 79 66.6 91.4L39 471c-9.4 9.4-9.4 24.6 0 33.9s24.6 9.4 33.9 0l57-57 188.1 0 57 57c9.4 9.4 24.6 9.4 33.9 0s9.4-24.6 0-33.9l-27.6-27.6C420 431 448 394.8 448 352l0-256c0-53-43-96-96-96L96 0zm32 352a32 32 0 1 0 0-64 32 32 0 1 0 0 64zm224-32a32 32 0 1 0 -64 0 32 32 0 1 0 64 0z"/></svg>
